.local/share/icons/Gruvbox-Plus-Dark/panel/22/akonaditray.svg

<svg xmlns="http://www.w3.org/2000/svg" width="22" height="22" version="1.1">
 <defs>
  <style id="current-color-scheme" type="text/css">
   .ColorScheme-Text { color:#ebdbb2; } .ColorScheme-Highlight { color:#458588; }
  </style>
 </defs>
 <path style="fill:currentColor" class="ColorScheme-Text" d="M 8.0019529,3.0000193 C 5.7950539,4.2739269 4.4304899,6.4317717 4.0898439,8.763691 4.3312289,8.649166 4.5805059,8.546849 4.8359379,8.464863 5.9378889,8.111167 7.1671309,8.005137 8.4531249,8.000019 10.233741,7.992919 12.135218,8.22502 13.919922,8.566426 12.530826,5.5682536 10.524073,2.9883676 8.0019529,3.0000193 Z m 4.2402351,1.1171875 c 1.042747,1.1188808 1.891926,2.5313686 2.585937,4.0292972 l 0.318359,0.6875 C 16.1095,9.053555 17.033238,9.290269 17.837891,9.542988 17.245192,6.7671796 15.034948,4.6240531 12.242188,4.1172068 Z M 8.4570309,9.000019 C 5.9988959,9.009819 3.892313,9.437993 3,11.00002 c 0,4.418 3.5816999,8 8,8 4.418,0 8,-3.582 8,-8 C 16.659086,10.084629 12.159712,8.985284 8.4570309,9.000019 Z"/>
</svg>

<svg width="22" height="22" version="1.1" xmlns="http://www.w3.org/2000/svg">
  <defs>
    <style id="current-color-scheme" type="text/css">.ColorScheme-Text { color:#ebdbb2; } .ColorScheme-Highlight { color:#458588; } .ColorScheme-NeutralText { color:#fe8019; } .ColorScheme-PositiveText { color:#689d6a; } .ColorScheme-NegativeText { color:#fb4934; }</style>
  </defs>
  <path class="ColorScheme-Text" d="m8.002 3c-2.207 1.274-3.571 3.432-3.912 5.764 0.2414-0.1145 0.4907-0.2168 0.7461-0.2988 1.102-0.3537 2.331-0.4597 3.617-0.4648 1.781-0.0071 3.682 0.225 5.467 0.5664-1.389-2.998-3.396-5.578-5.918-5.566zm4.24 1.117c1.043 1.119 1.892 2.531 2.586 4.029l0.3184 0.6875c0.963 0.2196 1.887 0.4563 2.691 0.709-0.5927-2.776-2.803-4.919-5.596-5.426zm-3.785 4.883c-2.458 0.0098-4.565 0.438-5.457 2 0 4.418 3.582 8 8 8 4.418 0 8-3.582 8-8-2.341-0.9154-6.84-2.015-10.54-2z" fill="currentColor"/>
</svg>
